X:1
T:Las, si tu as plaisir
T:Etienne du Tertre
T:Source : Livre IX de 27 chansons nouvelles à 4 parties---Paris---N.du Chemin---1551. Editor : André Vierendeels (06/04/18) Notes : Original clefs : G2, C2, C3, F4 Original note values have been halved Editorial accidentals above the staff Dotted brackets  indicate black notes    
T:Las, si tu as plaisir
T:©
T:©
T:©
C:Etienne du Tertre
Z:©
%%score [ 1 2 3 4 ]
L:1/8
Q:1/4=120
M:2/2
K:C
V:1 treble nm="Soprano" snm="S"
V:2 treble nm="Alto" snm="A"
V:3 treble-8 nm="Tenor" snm="T"
V:4 bass nm="Bass" snm="B"
V:1
 e8 | z2 e2 d2 d2 | f2 f2 e2 d2- | dc c4 B2 | c8 | z2 c2 c2 c2 | A2 A2 d3 c | B2 A2 G2 c2 | %8
w: Las,|las, si tu|as plai- sir en|_ _ mon en-|nuy,|et que mon|mal te soit con-|ten- te- ment, et|
 c2 c2 A2 A2 | d3 c BA A2- | A2 G2 A4 | z2 e2 e2 e2 | d2 d2 f2 f2 | e2 d3 c c2- | c2 B2 c4- | %15
w: que mon mal te|soit con- ten- * *|* te- ment,|n'at- ten- dez|point plus, mais fais|dès au- * iour-|* * d'huy,|
 c4 z2 c2 | c2 c2 A2 A2 | d3 c B2 A2 | G2 c2 c2 c2 | A2 A2 d3 c | B2 A4 G2 | A4 z2 A2 | %22
w: _ ce|que voir- ra al-|le- ger mon tour-|ment, ce que voir-|ra al- le- ger|mon _ tour-|ment, si|
 B2 c2 d3 d | d2 d2 c2 c2 | B2 e2 e2 e2 | d2 B2 c2 d2 | e2 d4 c2- | c2 B2 c2 A2 | c4 d4 | %29
w: ie te voy de-|ve- nir tant d'ay-|mants, que n'ay- es|plus sou- * ve-|nan- * ce|_ de moy, (qu'a|tant ay-|
 B4 z2 B2 | c6 B2 | A2 A2 G4 |: z4 c4 | B2 B2 A2 G2 | A2 c2 B2 A2- |[M:2/4]"^#" A2 G2 | %36
w: mé) pren-|dray pa-|ti- en- ment,|mort|me se- ta doul-|* ce ve- nant|_ de|
[M:2/2] A8 :| %37
w: toy.|
V:2
 G8 | z2 G2 G2 G2 | A2 F2 G2 D2 | E2 F2 G4 | E2 F2 F2 F2 | E2 E2 A3 G | F3 E D2 F2 | G2 F2 E2 E2 | %8
w: Las,|las, si tu|as plai- sir en|mon en- *|nuy, et que mon|mal te soit con-|ten- te- ment, et|que mon mal te|
 A3 G F3 E | D2 F2 G2 D2 | E4 C4 | z2 G2 G2 G2 | G2 G2 A2 F2 | G2 D2 E2 F2 | G2 G2 E2 F2 | %15
w: soit con- ten- te-|ment, n'at- ten- dez|point plus,|n'at- ten- dez|point plus, n'at- ten-|dez point plus mais|fais dès au- iour-|
 F2 F2 E2 E2 | A3 G F3 E | D2 F2 G2 F2 | E2 E2 A3 G | F3 E D2 F2 | G2 D2 E2 E2 | C4 z2 E2 | %22
w: dhuy, ce que voir-|ra al- le- ger|mon tour- ment, ce|que voir- ra al-|le- ger mon tour-|ment, mon _ tour-|ment, si|
 G2 G2 G3 G | G2 G2 E2 F2 | D2 E2 G2 G2 | G6 G2 | E2 G4 F2 | G4 E4 | z2 A4 A2 | G4 G2 G2 | G6 G2 | %31
w: ie te voy de-|ve- nir tant d'ay-|mants, que n'ay- es|plus sou-|ve- nan- ce|de- moy,|(qu'a tant|ay- mé) pren-|dray pa-|
 E2 E2 E4 |: z4 G4 | G2 G2 F2 E2 | A,2 G2 GFED |[M:2/4] E2 E2 |[M:2/2] C8 :| %37
w: ti- en- ment,|mort|me se- ra doul-|ce, ve- nant- * * *|* de|toy.|
V:3
 c8 | z2 c2 B2 B2 | A2 d2 c2 A2 | B2 c2 d4 | c4 z2 c2 | c2 c2 A2 A2 | d3 c B2 A2 | G2 c2 c2 c2 | %8
w: Las,|las, si tu|as plai- sir en|mon en- *|nuy, et|que mon mal te|soit con- ten- te-|ment, et que mon|
 A2 A2 d3 c | B2 A2 G2 A2 | B4 A4 | z2 c2 c2 c2 | B2 z B A2 d2 | c2 A2 B2 c2 | d2 d2 c4 | %15
w: mal te soit con-|ten- te- ment, n'at-|ten- dez,|n'at- ten- dez|point, n'at- ten- dez|point mais fais dès|au- iour- dhuy,|
 z2 c2 c2 c2 | A2 A2 d3 c | B2 A2 G2 c2 | c2 c2 A2 A2 | d3 c B2 A2 | G2 A2 B4 | A4 z2 c2 | %22
w: ce que voir-|ra al- le- ger|mon tour- ment, ce|que voir- ra al-|le- ger mon tour-||ment, si|
 d2 e2 d3 c | B2 B2 c2 A2 | B2 c2 c2 c2 | B2 e2 e2 d2 | c2 d2 e2 c2 | d2 d2 c4 | z2 e2 f4 | %29
w: ie te voy de-|ve- nir tant d'ay-|mants, que n'ay- es|plus sou- ve- nan-||ce de moy,|(qu'a tant|
 d4 d2 d2 | e6 d2 | c2 c2 B4 |: z4 e4 | d2 d2 d2 G2 | c2 e2 dcBA |[M:2/4] B2 B2 |[M:2/2] A8 :| %37
w: ay- mé) pren-|dray pa-|ti- en- ment,|mort|me se- ra doul-|ce, ve- nant _ _ _|_ de|toy.|
V:4
 C,8 | z2 C,2 G,2 G,2 | D,2 D,2 E,2 F,2 | G,2 A,2 G,4 | C,2 F,2 F,2 F,2 | C,4 z4 | D,4 D,2 D,2 | %7
w: Las,|las, si tu|as plai- sir en|mon en- *|nuy, et que mon|mal|te soit con-|
 E,2 F,2 C,4 | z4 D,4 | D,2 D,2 E,2 F,2 | E,4 A,,4 | z2 C,2 C,D,E,F, | G,2 G,2 D,2 D,2 | %13
w: ten- te- ment,|te|soit con- ten- te-|* ment|n'at- ten- * * *|dez point plus, mais|
 E,2 F,2 G,2 A,2 | G,4 C,2 F,2 | F,2 F,2 C,4 |"^#" z4 D,4 | D,2 D,2 E,2 F,2 | C,4 z4 | %19
w: fais dès au iour-|* dhuy, ce|que voir- ras,|al-|le- ger mon tour-|ment,|
 D,4 D,2 D,2 | E,2 F,2 E,4 | A,,4 z2 A,2 | G,2 C,2 G,3 G, | G,2 G,2 A,2 F,2 | G,2 C,2 C,D,E,F, | %25
w: al- le- ger|mon _ tour-|ment, si|ie te voy de-|ve- nir tant d'ay-|mants, que n'ay- * * *|
 G,2 G,2 C,2 G,2 | C2 B,2 A,2 A,2 | G,4 z2 A,2- | A,2 A,2 D,4 | G,4 z2 G,2 | C6 G,2 | %31
w: * es plus sou-|ve- nan- ce de|moy, (qu'a|_ tant ay-|mé) pren-|dray pa-|
 A,2 A,2 E,4 |: z4 C,4 | G,2 G,2 D,2 E,2 | F,2 C,2 G,2 A,2 |[M:2/4] E,4 |[M:2/2] A,,8 :| %37
w: ti- en- ment,|mort|me se- ra doul-|* ce, ve- nant|de|toy.|

